!!!Melodie: eigene
!!!Typ: Lied
**kern	**silbe	**silbe	**silbe	**silbe	**silbe	**silbe	**silbe	**silbe	**silbe	**silbe	**silbe	**silbe	**silbe	**silbe
*clefG2	*lang:DE	*lang:DE	*lang:DE	*lang:DE	*lang:DE	*lang:DE	*lang:DE	*lang:DE	*lang:DE	*lang:DE	*lang:DE	*lang:DE	*lang:DE	*lang:DE
*M3/4	*	*	*	*	*	*	*	*	*	*	*	*	*	*
4d	Er#	Die	Am	Wen	Der	Der	Un#	Jo#	Sein’	Heut’	Auch	Der	Die	D’rum
4d	#schie#	al#	Sab#	sucht	Jüng#	Herr	#ser	#nas	Raub	geh’n	es#	schla#	Sonn’,	wir
4d	#nen	#te	#bat	ihr	#er	hielt	Sim#	im	der	wir	#sen	#gend	die	auch
=	=	=	=	=	=	=	=	=	=	=	=	=	=	=
2a	ist	Schlang’,	früh	da?	Furcht	ein	#son,	Wal#	Tod	aus	wir	Eng’l	Erd’,	bil#
4b	der	die	mit	Der	und	sehr	der	#fisch	musst’	Ä#	die	vor#	all’	#lig
=	=	=	=	=	=	=	=	=	=	=	=	=	=	=
4cc	herr#	Sünd’	Spe#	En#	Her#	freund#	star#	war	fah#	#gyp#	sü#	#ü#	Kre#	fröh#
4b	#lich'	und	#zer#	#gel	#ze#	#lich	#ke	drei	#ren	#ten#	#ßen	#ber	#a#	#lich
4a	Tag,	Tod,	#ei	sprach,	#leid'	Ge#	Held,	Tag’:	lan,	#land	Brot,	geht,	#tur	sein,
=	=	=	=	=	=	=	=	=	=	=	=	=	=	=
2.;g	dran	die	ka#	Christ	wird	#spräch	Chris#	so	das	wo	die	kein’	und	sing#
=	=	=	=	=	=	=	=	=	=	=	=	=	=	=
4a	sich	Höll',	#men	ist	heut’	mit	#tus,	lang’	Le#	Pha#	Mo#	Erst#	was	#en
4b	nie#	all	zum	er#	ver#	zween	den	Chris#	#ben	#ra#	#ses	#ge#	be#	das
4cc	#mand	Jam#	Grab	#stan#	#kehrt	Jüng#	star#	#tus	siegt	#o#	Got#	#burt	#trü#	Ha#
=	=	=	=	=	=	=	=	=	=	=	=	=	=	=
2dd	g’nug	#mer,	Ma#	#den,	in	#ern	#ken	im	und	#nis	#tes	er	#bet	#le#
8La	freu#	Angst	#rie#	der	ei#	auf	Lö#	Grab	g’wann	Dienst	Volk	bei	war	#lu#
8Jb	|	|	|	|	|	|	|	|	|	|	|	|	|	|
=	=	=	=	=	=	=	=	=	=	=	=	=	=	=
2cc	#en	und	#en	hie	#tel	dem	#wen	auch	ihm	uns	ge#	uns	zu#	#ja
4b	mag:	Not	drei,	lag,	Freud’,	Weg,	fällt,	lag;	an,	band,	#bot,	schlägt,	#vor,	fein
=	=	=	=	=	=	=	=	=	=	=	=	=	=	=
2.;a	Christ,	hat	dass	hie	so#	vor	der	denn	zer#	das	kein	uns#	das	und
=	=	=	=	=	=	=	=	=	=	=	=	=	=	=
8La	un#	ü#	sie	se#	#bald	Freud’	Höl#	läng#	#stört	rech#	Sau#	#'re	freut	lo#
8Jb-	|	|	|	|	|	|	|	|	|	|	|	|	|	|
8Lcc	#ser	#ber#	salb#	#het	sie	das	#len	#er	ist	#te	#er#	Tür#	sich	#ben
8Jb-	|	|	|	|	|	|	|	|	|	|	|	|	|	|
4a	Herr	#wun#	#ten	ihr	nur	Herz	Pfor#	ihn	nun	Os#	#teig	#schwell'	heut’	dich,
=	=	=	=	=	=	=	=	=	=	=	=	=	=	=
(4.g	heut’	#den	Ma#	die	den	in	#ten	der	all’	#ter#	soll	hat	an	Herr
8f)	|	|	|	|	|	|	|	|	|	|	|	|	|	|
4e	tri#	Je#	#ri#	Schweiß#	Her#	Leib	er	Tod	sei#	#lämm#	bei	Chris#	die#	Je#
=	=	=	=	=	=	=	=	=	=	=	=	=	=	=
(4f	#um#	#su	#en	#tüch#	#ren	ihn’n	hin#	kein’	#ne	#e#	uns	#ti	#sem	#su
4e)	|	|	|	|	|	|	|	|	|	|	|	|	|	|
4d	#phiert,	Christ,	Sohn,	#lein;	sah’n,	brannt’,	#trägt,	Stund’	Macht,	#lein	sein,	Blut	Tag,	Christ,
=	=	=	=	=	=	=	=	=	=	=	=	=	=	=
2.;c	all’	der	der	geht	ver#	im	dem	in	Christ	wir	dass	be#	da	zu
=	=	=	=	=	=	=	=	=	=	=	=	=	=	=
4c	sein’	heut’	vom	hin,	#schwand	Brot#	Teu#	sei’m	hat	es#	wir	#stri#	der	Trost
4f	Feind’	vom	Tod	sagt's	ihr	#brech#	#fel	Rach#	das	#sen	von	#chen,	Welt	du
4g	er	Tod	war	bald	Trau#	#en	all	#en	Le#	heut’	Sün#	das	Fürst	uns
=	=	=	=	=	=	=	=	=	=	=	=	=	=	=
2a	ge#	er#	er#	den	#ren,	ward	sein	be#	#ben	im	#den	hält	dar#	er#
4g	#fang#	#stan#	#stan#	Jüng#	Furcht	er	G’walt	#hal#	wie#	Brot	le#	uns	#nie#	#stan#
=	=	=	=	=	=	=	=	=	=	=	=	=	=	=
(4f	#en	#den	#den	#ern	und	er#	er#	#ten	#der#	und	#ben	in	#der	#den
4.cc	|	|	|	|	|	|	|	|	|	|	|	|	|	|
8b-)	|	|	|	|	|	|	|	|	|	|	|	|	|	|
=	=	=	=	=	=	=	=	=	=	=	=	=	=	=
2;a	führt,	ist,	schon,	sein,	Zag’n,	#kannt,	#legt,	kunnt,	#'bracht,	Wein,	rein.	Hut,	lag,	bist,
4g	Hal#	Hal#	Hal#	Hal#	Hal#	Hal#	Hal#	Hal#	Hal#	Hal#	Hal#	Hal#	Hal#	Hal#
=	=	=	=	=	=	=	=	=	=	=	=	=	=	=
4f	#le#	#le#	#le#	#le#	#le#	#le#	#le#	#le#	#le#	#le#	#le#	#le#	#le#	#le#
(4.e	#lu#	#lu#	#lu#	#lu#	#lu#	#lu#	#lu#	#lu#	#lu#	#lu#	#lu#	#lu#	#lu#	#lu#
8d)	|	|	|	|	|	|	|	|	|	|	|	|	|	|
=	=	=	=	=	=	=	=	=	=	=	=	=	=	=
2.;d	#ja.	#ja.	#ja.	#ja.	#ja.	#ja.	#ja.	#ja.	#ja.	#ja.	#ja.	#ja.	#ja.	#ja.
==	==	==	==	==	==	==	==	==	==	==	==	==	==	==
*-	*-	*-	*-	*-	*-	*-	*-	*-	*-	*-	*-	*-	*-	*-
